icons/glyphs/glyph-homebank.svg

<?xml version="1.0" encoding="UTF-8" standalone="no"?><svg height="16" viewBox="0 0 4.2333332 4.2333332" width="16" xmlns="http://www.w3.org/2000/svg"><sodipodi:namedview/><metadata><rdf:RDF><cc:Work><dc:format>image/svg+xml</dc:format><dc:type/><dc:title/></cc:Work></rdf:RDF></metadata><path d="m2.1166666.00000005-2.1166666 2.11666645h.32564099v2.1166666h3.58205121v-2.1166666h.325641zm-.1628205 1.30256395h.325641v.3256411c.1841308.0000035.4182756.0000112.4884615 0v .3256409c-.070186.0000113-.3043188.0000036-.4884615 0v .323097c.077025.00192.1567467.011215.2388247.046747.07198.03116.1431643.088531.1876252.1672727.044461.078749.062966.1718965.062966.2769857v.0003256c-.0002772.094995-.0109924.1780314-.0451573.2544072-.0341655.076376-.0980747.1409857-.1679087.1758589-.0898707.044863-.1811928.053761-.2763497.055962v.3275491h-.325641v-.3256411h-.4884617v-.325641h.4884615v-.3230969c-.076-.0019901-.1546788-.011511-.2356446-.046429-.071918-.031016-.1433009-.0882251-.187625-.166955-.044022-.078193-.062058-.1707834-.062012-.2747596-.00154-.083321-.00635-.2285936.105261-.3412234.086752-.087546.2085597-.1286056.3800204-.143104zm0 .6617763c-.09947.013684-.1420985.036783-.14851.043249-.0092.00929-.01293.026342-.011448.107487v.00191.00159c-.0001954.066186.011946.1002597.020671.1157552.00872.015494.013367.019624.032755.027985.020029.00863.058262.013869.106533.016537zm.325641.6414238v.3189629c.066682-.00454.1171914-.010585.1310198-.017491.011698-.00584.00909-.00226.015901-.017491.00678-.015155.016561-.054569.016854-.1217974 0-.066458-.012036-.1011701-.020988-.1170272-.00895-.015857-.013822-.019831-.033391-.028303-.020522-.00888-.06002-.014099-.1093958-.016855z" fill="#d0d0d0"/></svg>

<?xml version="1.0" encoding="UTF-8" standalone="no"?>
<!-- Created with Inkscape (http://www.inkscape.org/) -->

<svg
   xmlns:dc="http://purl.org/dc/elements/1.1/"
   xmlns:cc="http://creativecommons.org/ns#"
   xmlns:rdf="http://www.w3.org/1999/02/22-rdf-syntax-ns#"
   xmlns:svg="http://www.w3.org/2000/svg"
   xmlns="http://www.w3.org/2000/svg"
   xmlns:xlink="http://www.w3.org/1999/xlink"
   xmlns:sodipodi="http://sodipodi.sourceforge.net/DTD/sodipodi-0.dtd"
   xmlns:inkscape="http://www.inkscape.org/namespaces/inkscape"
   width="16"
   height="16"
   viewBox="0 0 4.2333332 4.2333332"
   version="1.1"
   id="svg8"
   inkscape:version="0.92+devel (b8837397f6, 2017-07-27, custom)"
   sodipodi:docname="glyph-homebank.svg">
  <defs
     id="defs2">
    <linearGradient
       xlink:href="#linearGradient4227"
       id="linearGradient4233"
       x1="35.050999"
       y1="44.542"
       x2="22"
       y2="10"
       gradientUnits="userSpaceOnUse"
       gradientTransform="matrix(0.26458333,0,0,0.26458333,-6.2614532,-3.5675298)" />
    <linearGradient
       id="linearGradient4227">
      <stop
         style="stop-color:#ffdc69;stop-opacity:1"
         offset="0"
         id="stop7" />
      <stop
         style="stop-color:#ffffff;stop-opacity:1"
         offset="1"
         id="stop9" />
    </linearGradient>
  </defs>
  <sodipodi:namedview
     id="base"
     pagecolor="#002466"
     bordercolor="#ffffff"
     borderopacity="0.38039216"
     inkscape:pageopacity="1"
     inkscape:pageshadow="2"
     inkscape:zoom="18.208"
     inkscape:cx="10.094581"
     inkscape:cy="7.9162778"
     inkscape:document-units="px"
     inkscape:current-layer="svg8"
     inkscape:document-rotation="0"
     showgrid="false"
     inkscape:showpageshadow="false"
     borderlayer="true"
     inkscape:window-width="1920"
     inkscape:window-height="1051"
     inkscape:window-x="0"
     inkscape:window-y="0"
     inkscape:window-maximized="1"
     units="px" />
  <metadata
     id="metadata5">
    <rdf:RDF>
      <cc:Work
         rdf:about="">
        <dc:format>image/svg+xml</dc:format>
        <dc:type
           rdf:resource="http://purl.org/dc/dcmitype/StillImage" />
        <dc:title></dc:title>
      </cc:Work>
    </rdf:RDF>
  </metadata>
  <path
     inkscape:connector-curvature="0"
     style="fill:#d0d0d0;fill-opacity:1;stroke:none;stroke-width:0.26458332;enable-background:new"
     d="M 2.1166666,4.9999999e-8 0,2.1166665 H 0.32564099 V 4.2333331 H 3.9076922 V 2.1166665 h 0.325641 z M 1.9538461,1.302564 h 0.325641 v 0.3256411 c 0.1841308,3.5e-6 0.4182756,1.12e-5 0.4884615,0 V 1.953846 c -0.070186,1.13e-5 -0.3043188,3.6e-6 -0.4884615,0 v 0.323097 c 0.077025,0.00192 0.1567467,0.011215 0.2388247,0.046747 0.07198,0.03116 0.1431643,0.088531 0.1876252,0.1672727 0.044461,0.078749 0.062966,0.1718965 0.062966,0.2769857 V 2.768274 C 2.7686258,2.863269 2.7579106,2.9463054 2.7237457,3.0226812 2.6895802,3.0990572 2.625671,3.1636669 2.555837,3.1985401 2.4659663,3.2434031 2.3746442,3.2523011 2.2794873,3.2545021 V 3.5820512 H 1.9538463 V 3.2564101 H 1.4653846 V 2.9307691 H 1.9538461 V 2.6076722 C 1.8778461,2.6056821 1.7991673,2.5961612 1.7182015,2.5612432 1.6462835,2.5302272 1.5749006,2.4730181 1.5305765,2.3942882 1.4865545,2.3160952 1.4685185,2.2235048 1.4685645,2.1195286 1.4670245,2.0362076 1.4622145,1.890935 1.5738255,1.7783052 1.6605775,1.6907592 1.7823852,1.6496996 1.9538459,1.6352012 Z m 0,0.6617763 c -0.09947,0.013684 -0.1420985,0.036783 -0.14851,0.043249 -0.0092,0.00929 -0.01293,0.026342 -0.011448,0.107487 v 0.00191 0.00159 c -1.954e-4,0.066186 0.011946,0.1002597 0.020671,0.1157552 0.00872,0.015494 0.013367,0.019624 0.032755,0.027985 0.020029,0.00863 0.058262,0.013869 0.106533,0.016537 z m 0.325641,0.6414238 V 2.924727 c 0.066682,-0.00454 0.1171914,-0.010585 0.1310198,-0.017491 0.011698,-0.00584 0.00909,-0.00226 0.015901,-0.017491 0.00678,-0.015155 0.016561,-0.054569 0.016854,-0.1217974 0,-0.066458 -0.012036,-0.1011701 -0.020988,-0.1170272 -0.00895,-0.015857 -0.013822,-0.019831 -0.033391,-0.028303 -0.020522,-0.00888 -0.06002,-0.014099 -0.1093958,-0.016855 z"
     id="path28"
     inkscape:label="#" />
</svg>
